X: ~
T: Anthony Frawley's Slide
M: 6/8
L: 1/8
R: slide
K: G Major
|: B |
GED GBA GED G2 A | GED G2 B dBA B2 A |
GED G2 B def g2 a | bag ege dBG A2 :|
|: B |
d2 d edB def g2 e | d^cd edB dBG A2 G |
d3 edB dd/e/f g2 a | bag e/f/ge dBG A2 :|
